icons/clipboard-check.svg

<svg xmlns="http://www.w3.org/2000/svg" width="24" height="24" viewBox="0 0 24 24">
  <path d="M16,1 C16.5128358,1 16.9355072,1.38604019 16.9932723,1.88337887 L17,2 L17,3 L19,3 C20.1045695,3 21,3.8954305 21,5 L21,21 C21,22.1045695 20.1045695,23 19,23 L5,23 C3.8954305,23 3,22.1045695 3,21 L3,5 C3,3.8954305 3.8954305,3 5,3 L7,3 L7,2 C7,1.48716416 7.38604019,1.06449284 7.88337887,1.00672773 L8,1 L16,1 Z M15.1616337,11.2501621 C14.7475097,10.8847586 14.1155778,10.9242544 13.7501742,11.3383784 L13.7501742,11.3383784 L10.9700121,14.488 L10.2498499,13.6717117 L10.1610152,13.5828086 C9.78851489,13.2539073 9.22065875,13.2461999 8.83839043,13.5834955 C8.42426642,13.948899 8.38477067,14.580831 8.75017421,14.994955 L8.75017421,14.994955 L10.2207624,16.6616216 L10.3105198,16.7513955 C10.7177952,17.1104909 11.3507811,17.0805663 11.7204382,16.6616216 L11.7204382,16.6616216 L15.2498499,12.6616216 L15.327,12.5624086 C15.6069605,12.1518544 15.543902,11.5874577 15.1616337,11.2501621 Z M15,3 L9,3 L9,5 L15,5 L15,3 Z"/>
</svg>

<svg xmlns="http://www.w3.org/2000/svg" viewBox="0 0 24 24">
  <path d="M16 1a1 1 0 0 1 1 .88V3h2a2 2 0 0 1 2 2v16a2 2 0 0 1-2 2H5a2 2 0 0 1-2-2V5c0-1.1.9-2 2-2h2V2a1 1 0 0 1 .88-1H16zm-.84 10.25a1 1 0 0 0-1.41.09l-2.78 3.15-.72-.82-.09-.09A1 1 0 0 0 8.75 15l1.47 1.67.1.1a1 1 0 0 0 1.4-.1l3.53-4 .08-.1a1 1 0 0 0-.17-1.31zM15 3H9v2h6V3z"/>
</svg>
